packages/client-app/static/animations/inbox-zero/oasis/oasis.hyperesources/tree-bottom-trunk.svg

<svg xmlns="http://www.w3.org/2000/svg" preserveAspectRatio="xMidYMid" width="37.843" height="87.188" viewBox="0 0 37.843 87.188"><defs><style>.cls-1 { fill: #b0791a; opacity: 0.5; fill-rule: evenodd; }</style></defs><path d="M.813 66.937c-.421-2.45-.714-5.177-.816-8.228h37.841c-.102 3.051-.396 5.778-.817 8.228h-36.208zm.149-23.021h35.911c.432 2.952.74 5.868.894 8.691h-37.7c.155-2.823.463-5.739.895-8.691zm3.098-15.277h29.715c.755 2.992 1.449 6.077 2.053 9.175h-33.821c.604-3.098 1.298-6.183 2.053-9.175zm4.297-14.814h21.12c.865 2.66 1.771 5.604 2.655 8.712h-26.429c.884-3.108 1.789-6.052 2.654-8.712zm4.954-13.834h11.213000000000001s1.205 2.966 2.886 7.732h-16.985c1.681-4.766 2.886-7.732 2.886-7.732zm22.246 73.048c-3.15 9.901-8.39 13.035-8.39 13.035l-7.02.826v.29l-1.23-.145-1.23.145v-.29l-7.019-.826s-5.241-3.134-8.39-13.035h33.279z" class="cls-1"/></svg>

<svg xmlns="http://www.w3.org/2000/svg" xmlns:xlink="http://www.w3.org/1999/xlink" preserveAspectRatio="xMidYMid" width="37.843" height="87.188" viewBox="0 0 37.843 87.188">
  <defs>
    <style>
      .cls-1 {
        fill: #b0791a;
        opacity: 0.5;
        fill-rule: evenodd;
      }
    </style>
  </defs>
  <path d="M0.813,66.937 C0.392,64.487 0.099,61.760 -0.003,58.709 L37.838,58.709 C37.736,61.760 37.442,64.487 37.021,66.937 L0.813,66.937 ZM0.962,43.916 L36.873,43.916 C37.305,46.868 37.613,49.784 37.767,52.607 L0.067,52.607 C0.222,49.784 0.530,46.868 0.962,43.916 ZM4.060,28.639 L33.775,28.639 C34.530,31.631 35.224,34.716 35.828,37.814 L2.007,37.814 C2.611,34.716 3.305,31.631 4.060,28.639 ZM8.357,13.825 L29.477,13.825 C30.342,16.485 31.248,19.429 32.132,22.537 L5.703,22.537 C6.587,19.429 7.492,16.485 8.357,13.825 ZM13.311,-0.009 L17.687,-0.009 L20.147,-0.009 L24.524,-0.009 C24.524,-0.009 25.729,2.957 27.410,7.723 L10.425,7.723 C12.106,2.957 13.311,-0.009 13.311,-0.009 ZM35.557,73.039 C32.407,82.940 27.167,86.074 27.167,86.074 L20.147,86.900 L20.147,87.190 L18.917,87.045 L17.687,87.190 L17.687,86.900 L10.668,86.074 C10.668,86.074 5.427,82.940 2.278,73.039 L35.557,73.039 Z" class="cls-1"/>
</svg>
